X: 620
T: Green Leaf Fancy
C:Norman Blake
B: jims roots
M:4/4
L:1/8
Q: 1/4=100
K:Gmaj
V:1 
|:"G"GABc d2dd | "C"ege2 "G"d2dd | GABc d2B2 | "D7"AGA2 "G"ABBB |
GABc d2dd | "C"ege2 "G"g2gg | "C"edef gedc | "D7"BGA2 "G"G2GG :|
"G"GBAG "C"EGAB | c2de "G"d2dd | Bdef gefg | "D7"a2f2 e2d2 |
"G"GBAG "C"EGAB | c2de "G"d2dd | ABBB "C"c2cc | "A7"^c2cc "D7"d2f2 |
a2f2 "G"g2g2 | fg-g2 "D7"fefa | fdef | fdef "G"gedc | "D7"BGA2"G"G2GG| G8 |]
% abcbook-tune_id 6298c25da5dd9f30a9d406f8


% abcbook-boost 0
% abcbook-tablature 
% abcbook-transpose 
% abcbook-lastupdated 1654178398436
% abcbook-soundfonts 
% abcbook-repeats 1


